packages/foundations/assets/icons/functional/images/maps/map_pin_14.svg

<svg width="14" height="14" viewBox="0 0 14 14" fill="none" xmlns="http://www.w3.org/2000/svg">
<g clip-path="url(#clip0_186_91)">
<path fill-rule="evenodd" clip-rule="evenodd" d="M7.00001 1.25641C9.49043 1.25641 11.3077 3.11862 11.3077 5.5641C11.3077 6.55128 10.859 7.6506 10.0513 8.83974L7.58335 12.4295C7.44873 12.6314 7.24685 12.7436 7.00001 12.7436C6.75318 12.7436 6.5513 12.6314 6.41668 12.4295L3.94873 8.83974C3.11864 7.6282 2.69232 6.55128 2.69232 5.5641C2.69232 3.1859 4.44232 1.25641 7.00001 1.25641ZM7.00001 2.69231C5.22754 2.69231 4.12822 3.76923 4.12822 5.49676C4.12822 6.37179 4.59934 7.20189 5.1154 7.91983L7.00001 10.5897L8.88463 7.91983C9.37822 7.20189 9.87181 6.37179 9.87181 5.49676C9.87181 3.76923 8.77249 2.69231 7.00001 2.69231ZM5.56412 5.5641C5.56412 4.77881 6.21472 4.1282 7.00001 4.1282C7.78531 4.1282 8.43591 4.77881 8.43591 5.5641C8.43591 6.34939 7.78531 7 7.00001 7C6.21472 7 5.56412 6.34939 5.56412 5.5641Z" fill="#1A1C1F"/>
</g>
<defs>
<clipPath id="clip0_186_91">
<rect width="14" height="14" fill="white"/>
</clipPath>
</defs>
</svg>

<svg xmlns="http://www.w3.org/2000/svg" width="14" height="14" fill="none"><g clip-path="url(#a)"><path fill="#1A1C1F" fill-rule="evenodd" d="M7 1.256c2.49 0 4.308 1.863 4.308 4.308 0 .987-.449 2.087-1.257 3.276l-2.468 3.59a.68.68 0 0 1-.583.314.68.68 0 0 1-.583-.314L3.949 8.84c-.83-1.212-1.257-2.289-1.257-3.276 0-2.378 1.75-4.308 4.308-4.308m0 1.436c-1.772 0-2.872 1.077-2.872 2.805 0 .875.471 1.705.987 2.423L7 10.59l1.885-2.67c.493-.718.987-1.548.987-2.423 0-1.728-1.1-2.805-2.872-2.805M5.564 5.564c0-.785.65-1.436 1.436-1.436s1.436.65 1.436 1.436S7.786 7 7 7s-1.436-.65-1.436-1.436" clip-rule="evenodd"/></g><defs><clipPath id="a"><path fill="#fff" d="M0 0h14v14H0z"/></clipPath></defs></svg>
